X:1
T: Glenquay
C:
R:Reel
Q: 232
K:D
M:4/4
L:1/8
|:F|D1/2D1/2D AF AD DF|D1/2D1/2D AF BE EF|D1/2D1/2D AB de fe|dB AF AD DF|
D1/2D1/2D AF AD DF|D1/2D1/2D AF BE EF|D1/2D1/2D AB de fe|dB AF AD Df|
de fg ab af|ge fd eB Be|de fg ab af|ge ag fd de|
de fg ab af|ge fd eB Be|df eg af ge|fb ef dD D:|
